X:17
T:Promenade
Z: id:dc-slipjig-22
M:9/8
L:1/8
K:A Dorian
e2A A2G E2D|E2A A2B c2d|e2A A2G E2D|E2G G2F G3:|!
e2a a2g a3|e2a a3 gfe|d2g g2f g3|a2g g2e d3:|!

